actions/22x22-light/flag-green.svg

<svg viewBox="0 0 22 22" xmlns="http://www.w3.org/2000/svg"><path d="m5.5917969 3c-.32661 0-.5918369.2563756-.5917969.5722656v15.4277344h1.1816406v-6.236328c2.36349 1.14393 4.4593264.544044 5.9101564-1.191406 1.62853-1.9475804 3.478663-2.5646779 5.908203-3.4296879 0 0-2.362833-2.2350562-5.908203-2.2851562-2.3163701-.03233-4.5980264-.4403063-5.9101564-2.2851563 0-.31589-.2632737-.5722656-.5898437-.5722656z" fill="#43be80"/></svg>

<svg xmlns="http://www.w3.org/2000/svg" viewBox="0 0 22 22">
  <defs id="defs3051">
    <style type="text/css" id="current-color-scheme">
      .ColorScheme-Text {
        color:#4d4d4d
      }
      </style>
  </defs>
    <path
       style="fill:#43be80;fill-opacity:1"
       d="M 5.5917969 3 C 5.2651869 3 4.99996 3.2563756 5 3.5722656 L 5 19 L 6.1816406 19 L 6.1816406 12.763672 C 8.5451306 13.907602 10.640967 13.307716 12.091797 11.572266 C 13.720327 9.6246856 15.57046 9.0075881 18 8.1425781 C 18 8.1425781 15.637167 5.9075219 12.091797 5.8574219 C 9.7754269 5.8250919 7.4937706 5.4171156 6.1816406 3.5722656 C 6.1816406 3.2563756 5.9183669 3 5.5917969 3 z "
        />
</svg>
